X:1
T:Considine's grove
C:anon.
L:1/8
M:4/4
I:linebreak $
K:C
V:1 treble 
V:1
 .abc D2 | E^DE^F GFGA | BdA^F DFAF | E^DE^F GFGA | BdA^F BEE :| d2 |$ e^fge fgaf | e^fge fddf | %8
 e^fge fgaf | g^fed Beed | e^fge fgaf |$ e^fge fddf | eBBA BcA^F | GBA^F BEE |] %14
